src/22/panel/pcloud-pause.svg

<svg xmlns="http://www.w3.org/2000/svg" width="22" height="22" version="1.1">
 <defs>
  <style id="current-color-scheme" type="text/css">
   .ColorScheme-Text { color:#d3dae3; } .ColorScheme-Highlight { color:#4285f4; }
  </style>
 </defs>
 <path style="fill:currentColor;opacity:0.3" class="ColorScheme-Text" d="M 11.5 4 A 6.5 6.5 0 0 0 5.4902344 8.03125 A 5 5 0 0 0 1 13 A 5 5 0 0 0 6 18 L 12.423828 18 A 5 5 0 0 1 12 16 A 5 5 0 0 1 12.113281 14.953125 A 4.5 4.5 0 0 1 11.5 15 A 4.5 4.5 0 0 1 7 10.5 A 4.5 4.5 0 0 1 11.5 6 A 4.5 4.5 0 0 1 16 10.5 A 4.5 4.5 0 0 1 15.951172 11.117188 A 5 5 0 0 1 17 11 A 5 5 0 0 1 19.490234 11.669922 A 3 3 0 0 0 20 10 A 3 3 0 0 0 17 7 A 3 3 0 0 0 16.976562 7 A 6.5 6.5 0 0 0 11.5 4 z M 11.5 7 A 3.5 3.5 0 0 0 8 10.5 A 3.5 3.5 0 0 0 11.5 14 A 3.5 3.5 0 0 0 12.490234 13.855469 A 5 5 0 0 1 14.855469 11.490234 A 3.5 3.5 0 0 0 15 10.5 A 3.5 3.5 0 0 0 11.5 7 z M 10 8 L 11 8 L 12.5 8 A 1.5 1.5 0 0 1 14 9.5 A 1.5 1.5 0 0 1 12.5 11 L 11 11 L 11 13 L 10 13 L 10 11 L 10 8 z M 11 9 L 11 10 L 12.5 10 A 0.5 0.5 0 0 0 13 9.5 A 0.5 0.5 0 0 0 12.5 9 L 11 9 z"/>
 <path style="fill:currentColor" class="ColorScheme-Text" d="M 17.279297,12.007812 C 16.510764,11.953491 15.717412,12.120931 15,12.535156 13.0868,13.639756 12.432609,16.0868 13.537109,18 14.641609,19.9131 17.0869,20.567491 19,19.462891 20.9132,18.358291 21.569344,15.9132 20.464844,14 19.774531,12.804312 18.560186,12.098349 17.279297,12.007812 Z M 15,14 h 1 v 4 h -1 z m 3,0 h 1 v 4 h -1 z"/>
</svg>

<svg xmlns="http://www.w3.org/2000/svg" width="22" height="22"><defs><style id="current-color-scheme" type="text/css">.ColorScheme-Text{color:#323232}</style></defs><path class="ColorScheme-Text" d="M11.5 4a6.5 6.5 0 0 0-6.01 4.031A5 5 0 0 0 1 13a5 5 0 0 0 5 5h6.424A5 5 0 0 1 12 16a5 5 0 0 1 .113-1.047A4.5 4.5 0 0 1 11.5 15 4.5 4.5 0 0 1 7 10.5 4.5 4.5 0 0 1 11.5 6a4.5 4.5 0 0 1 4.5 4.5 4.5 4.5 0 0 1-.049.617A5 5 0 0 1 17 11a5 5 0 0 1 2.49.67A3 3 0 0 0 20 10a3 3 0 0 0-3-3 3 3 0 0 0-.023 0A6.5 6.5 0 0 0 11.5 4zm0 3A3.5 3.5 0 0 0 8 10.5a3.5 3.5 0 0 0 3.5 3.5 3.5 3.5 0 0 0 .99-.145 5 5 0 0 1 2.365-2.365A3.5 3.5 0 0 0 15 10.5 3.5 3.5 0 0 0 11.5 7zM10 8h2.5A1.5 1.5 0 0 1 14 9.5a1.5 1.5 0 0 1-1.5 1.5H11v2h-1V8zm1 1v1h1.5a.5.5 0 0 0 .5-.5.5.5 0 0 0-.5-.5H11z" fill="currentColor" opacity=".3"/><path class="ColorScheme-Text" d="M17.28 12.008a4 4 0 1 0 0 0zM15 14h1v4h-1zm3 0h1v4h-1z" fill="currentColor"/></svg>
